packages/components/src/components/icon/appstore/ic-appstore-tick-white.svg

<svg width="24" height="18" viewBox="0 0 24 18" fill="none" xmlns="http://www.w3.org/2000/svg">
<path d="M7.37504 15.6892L6.66793 14.9821L1.85543 10.1696C1.70971 10.0239 1.49037 10.0239 1.34465 10.1696C1.19892 10.3153 1.19892 10.5347 1.34465 10.6804L0.637539 11.3875L1.34465 10.6804L7.1059 16.4416L6.39879 17.1488L7.1059 16.4416C7.25162 16.5874 7.48471 16.5874 7.63043 16.4416L7.63077 16.4413L22.2054 1.88039L7.37504 15.6892ZM7.37504 15.6892L8.08215 14.9821M7.37504 15.6892L8.08215 14.9821M8.08215 14.9821L21.6946 1.36961C21.8404 1.22388 22.0597 1.22388 22.2054 1.36961L22.9125 0.662502M8.08215 14.9821L22.9125 0.662502M22.9125 0.662502L22.2054 1.36961C22.351 1.51522 22.3512 1.73434 22.2058 1.88006L22.9125 0.662502Z" fill="white" stroke="white" stroke-width="2"/>
</svg>

<svg width="24" height="18" viewBox="0 0 24 18" fill="none" xmlns="http://www.w3.org/2000/svg"><path d="m7.375 15.69-.707-.708-4.813-4.812a.353.353 0 0 0-.51 0 .353.353 0 0 0 0 .51l-.707.707.707-.707 5.76 5.762-.706.707.707-.707a.37.37 0 0 0 .524 0L22.206 1.88 7.375 15.69Zm0 0 .707-.708m-.707.707.707-.707m0 0L21.695 1.37a.353.353 0 0 1 .51 0l.708-.707m-14.83 14.32L22.912.662m0 0-.708.707a.353.353 0 0 1 0 .51l.708-1.217Z" fill="#fff" stroke="#fff" stroke-width="2"/></svg>
